brandFactory_export/3.Masa/Documento_Archivo JPEG_3Masa.svg

<?xml version="1.0" encoding="UTF-8"?>
<svg width="24px" height="24px" viewBox="0 0 24 24" version="1.1" xmlns="http://www.w3.org/2000/svg" xmlns:xlink="http://www.w3.org/1999/xlink">
    <title>3.Masa/Documento_Archivo JPEG_3Masa</title>
    <g id="Symbols" stroke="none" stroke-width="1" fill="none" fill-rule="evenodd">
        <g id="3.Masa/Documento_Archivo-JPEG_3Masa" fill="#5CB615" fill-rule="nonzero">
            <path d="M16.2117647,-2.66453526e-13 C16.487395,-2.66453526e-13 16.7462185,0.104201681 16.9445378,0.292436975 L23.3042017,6.45042017 C23.4352941,6.57478992 23.512605,6.7394958 23.5663866,6.91092437 C23.6033613,6.99831933 23.6235294,7.09579832 23.6235294,7.19663866 L23.6235294,21.9630252 C23.6235294,22.8638655 22.8504202,23.6235294 21.9327731,23.6235294 L7.31764706,23.6235294 C6.41680672,23.6235294 5.62689076,22.8470588 5.62689076,21.9630252 L5.66722689,18.6352941 L2.90756303,18.6352941 C1.30084034,18.6319328 0.00336134476,17.3310924 2.19149143e-10,15.7277311 L2.19149143e-10,10.8168067 C2.19149143e-10,9.21344538 1.30084034,7.91260504 2.90420168,7.90588235 L5.62352941,7.90588235 L5.62352941,1.6605042 C5.62352941,0.789915966 6.4302521,-2.66453526e-13 7.31428571,-2.66453526e-13 L16.2117647,-2.66453526e-13 Z M14.7226891,9.36134454 L2.90420168,9.36134454 C2.10420168,9.36134454 1.45546219,10.010084 1.45546219,10.8134454 L1.45546219,15.7277311 C1.45546219,16.5277311 2.10420168,17.1798319 2.90420168,17.1798319 L14.7193277,17.1798319 C15.5193277,17.1798319 16.1680672,16.5277311 16.1680672,15.7277311 L16.1680672,10.8134454 C16.1680672,10.0134454 15.5193277,9.36134454 14.7226891,9.36134454 Z M4.28907563,11.3647059 L4.28907563,14.1411765 C4.28907563,14.6252101 4.20840336,14.887395 4.01008403,15.0857143 C3.83193277,15.2571429 3.54957983,15.3378151 3.1092437,15.3378151 C2.91764706,15.3378151 2.78991597,15.3243697 2.51092437,15.287395 L2.44705882,14.6084034 C2.62521008,14.6420168 2.82352941,14.6554622 2.90756303,14.6554622 C3.28403361,14.6554622 3.40168067,14.5546218 3.40168067,14.1210084 L3.40168067,11.3647059 L4.28907563,11.3647059 Z M13.7647059,11.2907563 C14.1512605,11.2907563 14.6117647,11.3714286 14.8638655,11.4789916 L14.7495798,12.1277311 C14.4705882,12.0470588 14.1344538,11.9865546 13.8285714,11.9865546 C13.0420168,11.9865546 12.7193277,12.4537815 12.7193277,13.3008403 C12.7193277,13.7378151 12.7764706,14.097479 12.9478992,14.3361345 C13.0890756,14.5344538 13.3243697,14.6487395 13.7008403,14.6487395 C13.8420168,14.6487395 14.0369748,14.6319328 14.1747899,14.6084034 L14.1747899,13.7882353 L13.6268908,13.7882353 L13.6268908,13.1495798 L15.0554622,13.1495798 L15.0554622,15.1361345 C14.6857143,15.2504202 14.0941176,15.3344647 13.6672269,15.3344647 C12.2689076,15.3378151 11.794958,14.5680672 11.794958,13.3344538 C11.794958,12.1176471 12.4369748,11.2907563 13.7647059,11.2907563 Z M6.45378151,11.3647059 C7.06218487,11.3647059 7.4487395,11.4487395 7.70084034,11.6840336 C7.91260504,11.8789916 8.01344538,12.1781513 8.01344538,12.594958 C8.01344538,13.0117647 7.91596639,13.3243697 7.72436975,13.5394958 C7.49579832,13.794958 7.14285714,13.9159664 6.63193277,13.9159664 L6.00672269,13.9159664 L6.00672269,15.2605042 L5.11932773,15.2605042 L5.11932773,11.3647059 L6.45378151,11.3647059 Z M11.2672269,11.3647059 L11.2,12.0067227 L9.52605042,12.0067227 L9.52605042,12.9512605 L10.8638655,12.9512605 L10.8638655,13.6168067 L9.52605042,13.6168067 L9.52605042,14.6117647 L11.297479,14.6117647 L11.297479,15.2537815 L8.63865546,15.2537815 L8.63865546,11.3647059 L11.2672269,11.3647059 Z M6.41680672,12.0067227 L6,12.0067227 L6,13.2470588 L6.44033613,13.2470588 C6.72605042,13.2470588 6.84369748,13.2067227 6.95798319,13.0991597 C7.05882353,12.9983193 7.11260504,12.8302521 7.11260504,12.605042 C7.11260504,12.3932773 7.06554622,12.2420168 6.96470588,12.1445378 C6.85714286,12.0470588 6.69243698,12.0067227 6.41680672,12.0067227 Z M16.6151261,2.00336134 L16.6151261,4.1210084 C16.6151261,4.91092437 16.8739496,5.57647059 17.3647059,6.05042017 C17.8621849,6.53109244 18.5613445,6.78319328 19.3915966,6.78319328 L21.5563025,6.78319328 L16.6151261,2.00336134 Z" id="Documento_Archivo-JPEG_3Masa"></path>
        </g>
    </g>
</svg>

<svg width="24" height="24" viewBox="0 0 24 24" xmlns="http://www.w3.org/2000/svg"><path d="M16.212 0c.275 0 .534.104.733.292l6.36 6.158c.13.125.208.29.261.46a.735.735 0 01.058.287v14.766c0 .9-.774 1.66-1.691 1.66H7.318c-.901 0-1.691-.776-1.691-1.66l.04-3.328h-2.76A2.913 2.913 0 010 15.728v-4.911c0-1.604 1.3-2.904 2.904-2.911h2.72V1.66C5.624.79 6.43 0 7.314 0h8.898zm-1.49 9.361H2.905c-.8 0-1.449.65-1.449 1.452v4.915c0 .8.65 1.452 1.45 1.452h11.814c.8 0 1.45-.652 1.45-1.452v-4.915c0-.8-.65-1.452-1.446-1.452zM4.29 11.365v2.776c0 .484-.08.746-.279.945-.178.171-.46.252-.9.252-.192 0-.32-.014-.6-.05l-.063-.68c.178.034.377.047.46.047.377 0 .495-.1.495-.534v-2.756h.887zm9.476-.074c.386 0 .847.08 1.099.188l-.114.649a3.468 3.468 0 00-.921-.141c-.787 0-1.11.467-1.11 1.314 0 .437.057.796.229 1.035.141.198.376.313.753.313.141 0 .336-.017.474-.04v-.82h-.548v-.64h1.428v1.987c-.37.114-.96.198-1.388.198-1.398.004-1.872-.766-1.872-2 0-1.216.642-2.043 1.97-2.043zm-7.311.074c.608 0 .995.084 1.247.319.212.195.312.494.312.911 0 .417-.097.73-.289.944-.228.256-.581.377-1.092.377h-.625v1.345h-.888v-3.896h1.335zm4.813 0l-.067.642H9.526v.944h1.338v.666H9.526v.995h1.771v.642H8.64v-3.89h2.628zm-4.85.642H6v1.24h.44c.286 0 .404-.04.518-.148.1-.1.155-.269.155-.494 0-.212-.047-.363-.148-.46-.108-.098-.273-.138-.548-.138zM16.615 2.003v2.118c0 .79.259 1.455.75 1.93.497.48 1.196.732 2.027.732h2.164l-4.94-4.78z" fill="#5CB615" fill-rule="nonzero"/></svg>
